tde/theme/icons/themes/tos/flask.dark.svg

<svg xmlns="http://www.w3.org/2000/svg" width="64" height="64" version="1">
 <path style="opacity:0.2" d="m 6.8000005,8 c -1.5512,0 -2.8,1.238889 -2.8,2.777778 v 33.333334 11.11111 c 0,1.53889 1.2488,2.777778 2.8,2.777778 H 57.200001 C 58.7512,58 60,56.761112 60,55.222222 V 44.111112 10.777778 C 60,9.238889 58.7512,8 57.200001,8 Z"/>
 <path style="fill:#4f4f4f" d="m 6.8000005,7.0000004 c -1.5512,0 -2.8,1.2388888 -2.8,2.7777776 v 33.333334 11.11111 c 0,1.53889 1.2488,2.777778 2.8,2.777778 H 57.200001 C 58.7512,57 60,55.761112 60,54.222222 V 43.111112 9.777778 C 60,8.2388892 58.7512,7.0000004 57.200001,7.0000004 Z"/>
 <rect style="opacity:0.2;stroke:#000000;stroke-width:0;stroke-linejoin:round" width="56" height="3" x="4" y="32"/>
 <rect style="opacity:0.2;stroke:#000000;stroke-width:0;stroke-linejoin:round" width="56" height="3" x="4" y="14"/>
 <rect style="opacity:0.2;stroke:#000000;stroke-width:0;stroke-linejoin:round" width="56" height="3" x="4" y="26"/>
 <path style="opacity:0.1;fill:#000000" d="M 6.8007812 7 C 5.2495813 7 4 8.238455 4 9.7773438 L 4 10.777344 C 4 9.2384548 5.2495813 8 6.8007812 8 L 57.199219 8 C 58.75042 8 60 9.2384548 60 10.777344 L 60 9.7773438 C 60 8.2384549 58.75042 7 57.199219 7 L 6.8007812 7 z"/>
 <rect style="opacity:0.2;stroke:#000000;stroke-width:0;stroke-linejoin:round" width="56" height="3" x="4" y="20"/>
 <path style="fill:#47da72" d="M 13.799999,17 C 23.6,17 20.33171,36.900334 30.6,37 36.98542,37.06198 42.211766,29 48.799999,29 55.388235,29 60,36.166666 60,36.166666 v 6.944446 11.11111 C 60,55.761112 58.751199,57 57.2,57 H 6.799999 C 5.2488,57 4,55.761112 4,54.222222 V 27.833334 C 4,27.833334 6.07183,17 13.799999,17 Z"/>
 <path style="opacity:0.2;fill:#000000" d="m 13.800781,17 c 9.800001,0 6.530538,19.900334 16.798828,20 6.38542,0.06198 11.612939,-8 18.201172,-8 C 55.389017,29 60,36.166016 60,36.166016 v 1 C 60,37.166016 55.389017,30 48.800781,30 42.212548,30 36.985029,38.06198 30.599609,38 20.331319,37.90033 23.600782,18 13.800781,18 6.072612,18 4,28.833984 4,28.833984 v -1 C 4,27.833984 6.072612,17 13.800781,17 Z"/>
</svg>

<svg xmlns="http://www.w3.org/2000/svg" width="64" height="64" version="1"><path style="opacity:.2" d="M6.8 8A2.783 2.783 0 0 0 4 10.778v44.444A2.783 2.783 0 0 0 6.8 58h50.4c1.551 0 2.8-1.239 2.8-2.778V10.778A2.783 2.783 0 0 0 57.2 8z"/><path style="fill:#4f4f4f" d="M6.8 7A2.783 2.783 0 0 0 4 9.778v44.444A2.783 2.783 0 0 0 6.8 57h50.4c1.551 0 2.8-1.239 2.8-2.778V9.778A2.783 2.783 0 0 0 57.2 7z"/><path style="opacity:.2;stroke:#000;stroke-width:0;stroke-linejoin:round" d="M4 32h56v3H4zm0-18h56v3H4zm0 12h56v3H4z"/><path style="opacity:.1;fill:#000" d="M6.8 7A2.783 2.783 0 0 0 4 9.777v1A2.783 2.783 0 0 1 6.8 8h50.4c1.55 0 2.8 1.238 2.8 2.777v-1A2.783 2.783 0 0 0 57.2 7H6.8z"/><path style="opacity:.2;stroke:#000;stroke-width:0;stroke-linejoin:round" d="M4 20h56v3H4z"/><path style="fill:#47da72" d="M13.8 17c9.8 0 6.532 19.9 16.8 20 6.385.062 11.612-8 18.2-8 6.588 0 11.2 7.167 11.2 7.167v18.055A2.783 2.783 0 0 1 57.2 57H6.8A2.783 2.783 0 0 1 4 54.222V27.833S6.072 17 13.8 17z"/><path style="opacity:.2;fill:#000" d="M13.8 17c9.8 0 6.531 19.9 16.8 20 6.385.062 11.613-8 18.2-8 6.59 0 11.2 7.166 11.2 7.166v1S55.389 30 48.8 30c-6.587 0-11.815 8.062-18.2 8-10.269-.1-7-20-16.8-20C6.074 18 4 28.834 4 28.834v-1S6.073 17 13.8 17z"/></svg>
